images/LRC.svg

<svg height="250" viewBox="0 0 250 250" width="250" xmlns="http://www.w3.org/2000/svg"><g fill="#307dfb"><path d="m125.417969 249.417969c-68.5 0-124-55.5-124-124s55.5-124 124-124 124 55.5 124 124-55.835938 124-124 124zm0-239.835938c-63.917969 0-115.917969 52-115.917969 115.917969s52 115.917969 115.917969 115.917969c63.914062 0 115.914062-52 115.914062-115.917969s-52.082031-115.917969-115.914062-115.917969zm0 0"/><path d="m125.082031 28.582031-56.832031 90.417969 56.832031 45.5 57.417969-45.5zm-3.75 123.25-42.5-33.332031 42.75-70.917969zm7.835938-104.25 42.75 70.917969-42.5 33.332031zm0 0"/><path d="m100.417969 215.917969h-15.585938v-37.835938h5.75v32.167969h9.835938zm0 0"/><path d="m120.167969 178c3.164062 0 5.5.917969 7 2.667969 1.332031 1.5 2 3.664062 2 6.414062v5.5c0 2.667969-1 4.917969-3.085938 6.835938l4.25 16.5h-6.164062l-3.5-14.25c-.167969 0-.335938 0-.5 0h-3.335938v14.25h-5.75v-37.835938h9.085938zm3.414062 9.167969c0-2.167969-1.082031-3.335938-3.25-3.335938h-3.414062v12.085938h3.414062c.917969 0 1.667969-.335938 2.335938-1 .664062-.667969.914062-1.417969.914062-2.335938zm0 0"/><path d="m150.082031 216.417969c-2.5 0-4.664062-.917969-6.414062-2.667969s-2.667969-3.917969-2.667969-6.417969v-20.664062c0-2.5.917969-4.667969 2.667969-6.417969s3.914062-2.667969 6.414062-2.667969 4.667969.917969 6.417969 2.667969 2.667969 3.917969 2.667969 6.417969v4.332031h-5.917969v-4.417969c0-.914062-.332031-1.664062-1-2.332031s-1.417969-1-2.332031-1c-.917969 0-1.667969.332031-2.335938 1-.664062.667969-.914062 1.417969-.914062 2.332031v20.75c0 .917969.332031 1.667969.914062 2.335938.585938.664062 1.417969.914062 2.335938.914062.914062 0 1.664062-.332031 2.332031-.914062.667969-.667969 1-1.417969 1-2.335938v-5.25h5.917969v5.25c0 2.5-.917969 4.667969-2.667969 6.417969s-3.917969 2.667969-6.417969 2.667969zm0 0"/></g></svg>

<!-- Generator: Adobe Illustrator 21.0.0, SVG Export Plug-In . SVG Version: 6.00 Build 0)  -->
<svg xmlns="http://www.w3.org/2000/svg" xmlns:xlink="http://www.w3.org/1999/xlink" width="250px" height="250px" viewBox="0 0 250 250" version="1.1">
<g id="surface1">
<path style=" stroke:none;fill-rule:nonzero;fill:rgb(18.82353%,49.019608%,98.431373%);fill-opacity:1;" d="M 125.417969 249.417969 C 56.917969 249.417969 1.417969 193.917969 1.417969 125.417969 C 1.417969 56.917969 56.917969 1.417969 125.417969 1.417969 C 193.917969 1.417969 249.417969 56.917969 249.417969 125.417969 C 249.417969 193.917969 193.582031 249.417969 125.417969 249.417969 Z M 125.417969 9.582031 C 61.5 9.582031 9.5 61.582031 9.5 125.5 C 9.5 189.417969 61.5 241.417969 125.417969 241.417969 C 189.332031 241.417969 241.332031 189.417969 241.332031 125.5 C 241.332031 61.582031 189.25 9.582031 125.417969 9.582031 Z M 125.417969 9.582031 "/>
<path style=" stroke:none;fill-rule:nonzero;fill:rgb(18.82353%,49.019608%,98.431373%);fill-opacity:1;" d="M 125.082031 28.582031 L 68.25 119 L 125.082031 164.5 L 182.5 119 Z M 121.332031 151.832031 L 78.832031 118.5 L 121.582031 47.582031 Z M 129.167969 47.582031 L 171.917969 118.5 L 129.417969 151.832031 Z M 129.167969 47.582031 "/>
<path style=" stroke:none;fill-rule:nonzero;fill:rgb(18.82353%,49.019608%,98.431373%);fill-opacity:1;" d="M 100.417969 215.917969 L 84.832031 215.917969 L 84.832031 178.082031 L 90.582031 178.082031 L 90.582031 210.25 L 100.417969 210.25 Z M 100.417969 215.917969 "/>
<path style=" stroke:none;fill-rule:nonzero;fill:rgb(18.82353%,49.019608%,98.431373%);fill-opacity:1;" d="M 120.167969 178 C 123.332031 178 125.667969 178.917969 127.167969 180.667969 C 128.5 182.167969 129.167969 184.332031 129.167969 187.082031 L 129.167969 192.582031 C 129.167969 195.25 128.167969 197.5 126.082031 199.417969 L 130.332031 215.917969 L 124.167969 215.917969 L 120.667969 201.667969 C 120.5 201.667969 120.332031 201.667969 120.167969 201.667969 L 116.832031 201.667969 L 116.832031 215.917969 L 111.082031 215.917969 L 111.082031 178.082031 L 120.167969 178.082031 Z M 123.582031 187.167969 C 123.582031 185 122.5 183.832031 120.332031 183.832031 L 116.917969 183.832031 L 116.917969 195.917969 L 120.332031 195.917969 C 121.25 195.917969 122 195.582031 122.667969 194.917969 C 123.332031 194.25 123.582031 193.5 123.582031 192.582031 Z M 123.582031 187.167969 "/>
<path style=" stroke:none;fill-rule:nonzero;fill:rgb(18.82353%,49.019608%,98.431373%);fill-opacity:1;" d="M 150.082031 216.417969 C 147.582031 216.417969 145.417969 215.5 143.667969 213.75 C 141.917969 212 141 209.832031 141 207.332031 L 141 186.667969 C 141 184.167969 141.917969 182 143.667969 180.25 C 145.417969 178.5 147.582031 177.582031 150.082031 177.582031 C 152.582031 177.582031 154.75 178.5 156.5 180.25 C 158.25 182 159.167969 184.167969 159.167969 186.667969 L 159.167969 191 L 153.25 191 L 153.25 186.582031 C 153.25 185.667969 152.917969 184.917969 152.25 184.25 C 151.582031 183.582031 150.832031 183.25 149.917969 183.25 C 149 183.25 148.25 183.582031 147.582031 184.25 C 146.917969 184.917969 146.667969 185.667969 146.667969 186.582031 L 146.667969 207.332031 C 146.667969 208.25 147 209 147.582031 209.667969 C 148.167969 210.332031 149 210.582031 149.917969 210.582031 C 150.832031 210.582031 151.582031 210.25 152.25 209.667969 C 152.917969 209 153.25 208.25 153.25 207.332031 L 153.25 202.082031 L 159.167969 202.082031 L 159.167969 207.332031 C 159.167969 209.832031 158.25 212 156.5 213.75 C 154.75 215.5 152.582031 216.417969 150.082031 216.417969 Z M 150.082031 216.417969 "/>
</g>
</svg>
